X:20
M:6/4
L:1/4
Q:3/4=80
K:G
 |: Bee/f/g>fe | dBGBde/f/ | g>fef2A |
 |: B/c/d/B/ dB/c/d/B/ g | dBG B/c/d/B/ d | B/c/d/B/ gf2A |
 |: GgBg>Bg | cgBGgB | g>BgAfA |
 |: d2_e/d/e/d/ c/B/ g | dBG d2_e/d/ | e/d/c/B/ g f2A |
d2_e/d/ e/d/c/B/g | dBd ece | dBdf2A :|
 |: Bdgg e/f/g/e/ | gGgB>dg | g e/f/g/e/f2A |

